X:9073
T:La Sautire
A:Normandie
O:France
M:6/8
L:1/8
Q:1/4= 160
K:F
FFF|A2 AG2A|F2 z FFF|A2 AG2A|F2 z FGA|BBB B2 A|!
G3-G2 A|c6|A2 A A2G|A3 F2A|A2 A G2A|F3 E3| D3||
